style-guide/assets/wds-icons-h3-small.svg

<svg xmlns="http://www.w3.org/2000/svg" xmlns:xlink="http://www.w3.org/1999/xlink" width="18" height="18" viewBox="0 0 18 18">
  <defs>
    <path id="h3-a" d="M17.9248,3.381 C17.9728,3.265 17.9998,3.137 17.9998,3.003 L17.9998,2.997 C17.9998,2.863 17.9728,2.735 17.9248,2.619 C17.8758,2.5 17.8038,2.389 17.7068,2.293 C17.6108,2.197 17.4998,2.124 17.3808,2.075 C17.2648,2.027 17.1368,2 17.0028,2 L16.9998,2 L10.9998,2 C10.4468,2 9.9998,2.447 9.9998,3 C9.9998,3.553 10.4468,4 10.9998,4 L14.5858,4 L12.2928,6.293 C12.1958,6.389 12.1238,6.5 12.0748,6.619 C12.0278,6.735 11.9998,6.863 11.9998,6.997 L11.9998,7.003 C11.9998,7.137 12.0278,7.265 12.0748,7.381 C12.1238,7.5 12.1958,7.611 12.2928,7.707 C12.3898,7.803 12.4998,7.876 12.6188,7.925 C12.7358,7.973 12.8628,8 12.9968,8 L12.9998,8 C14.6538,8 15.9998,9.346 15.9998,11 C15.9998,12.654 14.6538,14 12.9998,14 C12.4718,14 11.9528,13.861 11.4988,13.598 C11.0188,13.322 10.4088,13.485 10.1328,13.963 C9.8558,14.442 10.0198,15.053 10.4968,15.33 C11.2548,15.768 12.1208,16 12.9998,16 C15.7568,16 17.9998,13.757 17.9998,11 C17.9998,8.953 16.7638,7.19 14.9978,6.416 L17.7068,3.707 C17.8038,3.611 17.8758,3.5 17.9248,3.381 M7,2.0001 C6.447,2.0001 6,2.4471 6,3.0001 L6,8.0001 L2,8.0001 L2,3.0001 C2,2.4471 1.553,2.0001 1,2.0001 C0.447,2.0001 0,2.4471 0,3.0001 L0,15.0001 C0,15.5531 0.447,16.0001 1,16.0001 C1.553,16.0001 2,15.5531 2,15.0001 L2,10.0001 L6,10.0001 L6,15.0001 C6,15.5531 6.447,16.0001 7,16.0001 C7.553,16.0001 8,15.5531 8,15.0001 L8,3.0001 C8,2.4471 7.553,2.0001 7,2.0001"/>
  </defs>
  <use fill-rule="evenodd" xlink:href="#h3-a"/>
</svg>

<svg xmlns="http://www.w3.org/2000/svg" xmlns:xlink="http://www.w3.org/1999/xlink" viewBox="0 0 18 18">
  <defs>
    <path id="h3-a" d="M17.925 3.381A.988.988 0 0 0 18 3.003v-.006a.988.988 0 0 0-.293-.704.998.998 0 0 0-.704-.293H11a1 1 0 1 0 0 2h3.586l-2.293 2.293a.983.983 0 0 0-.293.704v.006a1.007 1.007 0 0 0 .293.704 1.009 1.009 0 0 0 .704.293H13c1.654 0 3 1.346 3 3a3.004 3.004 0 0 1-4.501 2.598 1 1 0 1 0-1.002 1.732A5.006 5.006 0 0 0 18 11a5.009 5.009 0 0 0-3.002-4.584l2.709-2.709a.983.983 0 0 0 .218-.326M7 2.001a1 1 0 0 0-1 1v5H2V3a1 1 0 1 0-2 0v12a1 1 0 1 0 2 0v-5h4v5a1 1 0 1 0 2 0V3a1 1 0 0 0-1-1"/>
  </defs>
  <use fill-rule="evenodd" xlink:href="#h3-a"/>
</svg>
